Adwaita++/apps/16/monitor-di-sistema.svg

<svg height="16" width="16" xmlns="http://www.w3.org/2000/svg">
  <g fill="#444">
    <path d="m2.188 2c-1.206 0-2.188 1.018-2.188 2.219v7.562c0 1.201.982 2.219 2.188 2.219h11.624c1.206 0 2.188-1.018 2.188-2.219v-7.561c0-1.202-.982-2.22-2.188-2.22zm0 2h11.624c.12 0 .188.08.188.219v7.562c0 .139-.067.219-.188.219h-11.624c-.12 0-.188-.08-.188-.219v-7.561c0-.14.067-.22.188-.22z"/>
    <path d="m7.486 5a.5.5 0 0 0 -.447.309l-1.123 2.691h-2.916v1h3.25a.5.5 0 0 0 .46-.309l.62-1.488.68 3.395a.5.5 0 0 0 .89.203l1.35-1.801h2.75v-1h-3a.5.5 0 0 0 -.4.2l-.83 1.104-.78-3.903a.5.5 0 0 0 -.505-.401z"/>
  </g>
</svg>

<svg xmlns="http://www.w3.org/2000/svg" width="16" height="16">
 <g fill="#444">
  <path d="M2.188 2C.982 2 0 3.018 0 4.219v7.562C0 12.982.982 14 2.188 14h11.624C15.018 14 16 12.982 16 11.781V4.22C16 3.018 15.018 2 13.812 2zm0 2h11.624c.12 0 .188.08.188.219v7.562c0 .139-.067.219-.188.219H2.188c-.12 0-.188-.08-.188-.219V4.22C2 4.08 2.067 4 2.188 4z" color="#444" font-family="Bitstream Vera Sans" overflow="visible"/>
  <path d="M7.486 5a.5.5 0 0 0-.447.309L5.916 8H3v1h3.25a.5.5 0 0 0 .46-.309l.62-1.488.68 3.395a.5.5 0 0 0 .89.203L10.25 9H13V8h-3a.5.5 0 0 0-.4.2L8.77 9.304l-.78-3.903A.5.5 0 0 0 7.485 5z" color="#000" font-family="sans-serif" overflow="visible"/>
 </g>
</svg>
